X: 32673
T: Poitin Still
R: jig
M: 6/8
K: Dmajor
A|:GBG A2 f|fdB cAF|GBG A2 f|edc B2 e|
fag afa|bag fed|faf efe|fdB AFD:|
|:BGB GBd|fdB AFA|BGB Acf|edc B2 f|
fag afa|bag fed|faf efe|gfe d3:|

